movekom_app/assets/icons/energy_1.svg

<svg height="60.101" viewBox="0 0 50.591 60.101" width="50.591" xmlns="http://www.w3.org/2000/svg"><g fill="#8d8d8d" transform="matrix(-1 0 0 -1 50.59 60.1)"><path d="m11.5 0a2.3 2.3 0 0 0 -2.3 2.3v11.8h-6.9a2.3 2.3 0 0 0 -2.3 2.3v9.2a2.3 2.3 0 0 0 2.3 2.3h2.3v11.5a20.726 20.726 0 0 0 18.511 20.581c14.335 1.419 22.881-10 22.881-20.581v-11.5h2.3a2.3 2.3 0 0 0 2.3-2.3v-9.2a2.3 2.3 0 0 0 -2.3-2.3h-6.9v-11.8a2.3 2.3 0 1 0 -4.6 0v11.8h-23v-11.8a2.3 2.3 0 0 0 -2.292-2.3zm34.492 23.3h-2.3a2.3 2.3 0 0 0 -2.3 2.3v13.8a16.1 16.1 0 1 1 -32.192 0v-13.8a2.3 2.3 0 0 0 -2.3-2.3h-2.3v-4.6h41.392z"/><path d="m12.526 9.474-6.345-3.174 2.343-2.341a2.3 2.3 0 0 0 -3.252-3.252l-4.6 4.6a2.3 2.3 0 0 0 .6 3.683l6.345 3.172-2.345 2.338c-2.154 2.159 1.128 5.385 3.252 3.256l4.6-4.6a2.3 2.3 0 0 0 -.598-3.682z" transform="translate(18.397 27.869)"/></g></svg>

<svg xmlns="http://www.w3.org/2000/svg" width="50.591" height="60.101" viewBox="0 0 50.591 60.101">
    <defs>
        <style>
            .prefix__cls-1{fill:#8d8d8d}
        </style>
    </defs>
    <g id="prefix__energy_1_" data-name="energy (1)" transform="rotate(180 25.295 30.05)">
        <path id="prefix__Trazado_458" d="M11.5 0a2.3 2.3 0 0 0-2.3 2.3v11.8H2.3A2.3 2.3 0 0 0 0 16.4v9.2a2.3 2.3 0 0 0 2.3 2.3h2.3v11.5a20.726 20.726 0 0 0 18.511 20.581c14.335 1.419 22.881-10 22.881-20.581V27.9h2.3a2.3 2.3 0 0 0 2.3-2.3v-9.2a2.3 2.3 0 0 0-2.3-2.3h-6.9V2.3a2.3 2.3 0 1 0-4.6 0v11.8h-23V2.3A2.3 2.3 0 0 0 11.5 0zm34.492 23.3h-2.3a2.3 2.3 0 0 0-2.3 2.3v13.8a16.1 16.1 0 1 1-32.192 0V25.6a2.3 2.3 0 0 0-2.3-2.3H4.6v-4.6h41.392z" class="prefix__cls-1" data-name="Trazado 458"/>
        <path id="prefix__Trazado_459" d="M12.526 9.474L6.181 6.3l2.343-2.341A2.3 2.3 0 0 0 5.272.707l-4.6 4.6a2.3 2.3 0 0 0 .6 3.683l6.345 3.172L5.272 14.5c-2.154 2.159 1.128 5.385 3.252 3.256l4.6-4.6a2.3 2.3 0 0 0-.598-3.682z" class="prefix__cls-1" data-name="Trazado 459" transform="translate(18.397 27.869)"/>
    </g>
</svg>
